dist/icons/svgs/split-outline.svg

<svg xmlns="http://www.w3.org/2000/svg" width="24" height="24" fill="currentcolor" class="icon-split-outline" viewBox="0 0 24 24">
  <path d="M17.2734 3.21094C17.625 2.85938 18.2109 2.85938 18.5625 3.21094L21.6875 6.33594C22.0781 6.72656 22.0781 7.3125 21.6875 7.66406L18.5625 10.7891C18.2109 11.1797 17.625 11.1797 17.2734 10.7891C16.8828 10.4375 16.8828 9.85156 17.2734 9.46094L18.7969 7.9375H15.5156C15.0859 7.9375 14.6953 8.13281 14.4219 8.40625L10.7891 12L14.4219 15.6328C14.6953 15.9062 15.0859 16.0625 15.5156 16.0625H18.7969L17.2734 14.5391C16.8828 14.1875 16.8828 13.6016 17.2734 13.25C17.625 12.8594 18.2109 12.8594 18.5625 13.25L21.6875 16.375C22.0781 16.7266 22.0781 17.3125 21.6875 17.6641L18.5625 20.7891C18.2109 21.1797 17.625 21.1797 17.2734 20.7891C16.8828 20.4375 16.8828 19.8516 17.2734 19.5L18.7969 17.9766H15.5156C14.6172 17.9766 13.7188 17.5859 13.0938 16.9609L9.10938 12.9375H2.9375C2.39062 12.9375 2 12.5469 2 12C2 11.4922 2.39062 11.0625 2.9375 11.0625H9.10938L13.0938 7.07812C13.7188 6.45312 14.6172 6.0625 15.5156 6.0625H18.7969L17.2734 4.53906C16.8828 4.1875 16.8828 3.60156 17.2734 3.25V3.21094Z"/>
</svg>

<svg xmlns="http://www.w3.org/2000/svg" width="24" height="24" fill="currentColor" class="icon-split-outline" viewBox="0 0 24 24">
  <path d="M17.273 3.21a.92.92 0 0 1 1.29 0l3.125 3.126c.39.39.39.976 0 1.328l-3.125 3.125a.856.856 0 0 1-1.29 0c-.39-.351-.39-.937 0-1.328l1.524-1.524h-3.281c-.43 0-.82.196-1.094.47L10.789 12l3.633 3.633c.273.273.664.43 1.094.43h3.28l-1.523-1.524a.856.856 0 0 1 0-1.289.856.856 0 0 1 1.29 0l3.125 3.125c.39.352.39.938 0 1.29l-3.125 3.124a.856.856 0 0 1-1.29 0 .856.856 0 0 1 0-1.289l1.524-1.523h-3.281a3.5 3.5 0 0 1-2.422-1.016l-3.985-4.023H2.938C2.39 12.938 2 12.547 2 12c0-.508.39-.937.938-.937h6.171l3.985-3.985a3.5 3.5 0 0 1 2.422-1.016h3.28L17.274 4.54a.856.856 0 0 1 0-1.289z"/>
</svg>
